X: 1
T:Home by Bearna
M:6/8
L:1/8
Q:1/4=180
C:Trad.
O:Irish
A:Kerry
D:Christy Moore - "Whatever tickles your fancy"
K:Ddor
D|"Dm"D2DF2G|A2dc2A|"C"G2Ac2E|E2DC3|
  "Dm"D2DF2G|A2dc2A|"C"G2Ac2E|"Dm"D3D2A|
  A2dd2e|d2cA2B|"C"c2dc2A|G2Ac2A|
  "Dm"A2dd2e|d2cA3|"C"G2Ec2E|"Dm"D3D2|]
